X: 9344
T: Dancing Bear, The
R: reel
M: 4/4
K: Eminor
|:"Em"EFGF EFGF|EFGA G2 F2|"Am"EFGF EFGF|EFGA G2 E2|
"Em"EFGF EFGF|EFGA B2 e2|"Bm"B2 Bc BAGF|"Em"G2 E2 E4:|
"Em"e2 ef gfef|gf e2 e4|"Am"e2 ef gfef|gf e2 e4|
"C"e2 ef gfef|gf e2 d2 dc|"Bm"B2Bc BAGF|"Em"G2 E2 E4|
"Em"e2 ef gfef|g2 e2 e4|"Am"d2 ef gfef|g2 e2 e4|
"C"e2ef gf e2|"A"^c2 ef gf e2|"Bm"B2Bc BAGF|"Em"G2 E2 E4||

